images_elementary_svg/cmd/sl/lc_bold.svg

<svg height="24" width="24" xmlns="http://www.w3.org/2000/svg" xmlns:xlink="http://www.w3.org/1999/xlink"><radialGradient id="a" cx="11.904744" cy="4.36105" gradientTransform="matrix(.01593237 2.9166493 -2.3215578 .01268165 22.839502 -31.91211)" gradientUnits="userSpaceOnUse" r="6.758298"><stop offset="0" stop-color="#737373"/><stop offset=".26238" stop-color="#636363"/><stop offset=".704952" stop-color="#4b4b4b"/><stop offset="1" stop-color="#3f3f3f"/></radialGradient><radialGradient id="b" cx="40" cy="43.5" gradientTransform="matrix(1 0 0 .75 -25.767561 12.375)" gradientUnits="userSpaceOnUse" r="2" xlink:href="#g"/><radialGradient id="c" cx="9" cy="43.5" gradientTransform="matrix(1 0 0 .75 .479155 12.375)" gradientUnits="userSpaceOnUse" r="2" xlink:href="#g"/><linearGradient id="d" gradientTransform="matrix(.29101737 0 0 1 8.024068 0)" gradientUnits="userSpaceOnUse" x1="17" x2="17" y1="46.5" y2="43.5"><stop offset="0" stop-opacity="0"/><stop offset=".5"/><stop offset="1" stop-opacity="0"/></linearGradient><radialGradient id="e" cx="40" cy="43.5" gradientTransform="matrix(1 0 0 .75 -26.446602 12.375)" gradientUnits="userSpaceOnUse" r="2" xlink:href="#g"/><linearGradient id="f" gradientTransform="matrix(.29101737 0 0 1 8.024068 0)" gradientUnits="userSpaceOnUse" x1="17" x2="17" xlink:href="#d" y1="46.5" y2="43.5"/><linearGradient id="g"><stop offset="0"/><stop offset="1" stop-opacity="0"/></linearGradient><g transform="matrix(.73633307 0 0 1 8.020185 -24.5)"><path d="m13.553398 43.5v3h.5c.831 0 1.5-.669 1.5-1.5s-.669-1.5-1.5-1.5z" fill="url(#e)" opacity=".2"/><path d="m8.8854046 43.5c-.7790625 0-1.40625.627187-1.40625 1.40625v.1875c0 .779063.6271875 1.40625 1.40625 1.40625h.59375v-3z" fill="url(#c)" opacity=".2"/><path d="m9.4791546 43.5h4.0742434v3h-4.0742434z" fill="url(#f)" opacity=".2" stroke-width=".53946"/></g><g transform="matrix(.73633307 0 0 1 -.479815 -24.5)"><path d="m14.232439 43.5v3h.5c.831 0 1.5-.669 1.5-1.5s-.669-1.5-1.5-1.5z" fill="url(#b)" opacity=".2"/><path d="m8.8854046 43.5c-.7790625 0-1.40625.627187-1.40625 1.40625v.1875c0 .779063.6271875 1.40625 1.40625 1.40625h.59375v-3z" fill="url(#c)" opacity=".2"/><path d="m9.4791546 43.5h4.7532844v3h-4.7532844z" fill="url(#d)" opacity=".2" stroke-width=".53946"/></g><path d="m18.692298 20.5h-3.852503l-3.07022-6.654324-1.269575.941236v5.713088h-4.0000001v-16.0010232h4.0000001v7.7050072l1.335242-2.2655349 3.048331-5.4394723h3.764947l-4.829884 7.2124992z" fill="url(#a)" stroke="#000" stroke-opacity=".6"/><path d="m6.5 4.4980469v1.5h3.999748v-1.5zm8.382812 0-3.047126 5.4394531-1.335938 2.265625v1.5l1.335938-2.265625 3.047126-5.4394531h2.703126l1.0625-1.5zm-.583984 8.0332031-.480469.679688 3.994141 7.289062h.878906z" fill="#fff" opacity=".2"/></svg>

<?xml version="1.0" encoding="UTF-8" standalone="no"?>
<svg
   xmlns:dc="http://purl.org/dc/elements/1.1/"
   xmlns:cc="http://creativecommons.org/ns#"
   xmlns:rdf="http://www.w3.org/1999/02/22-rdf-syntax-ns#"
   xmlns:svg="http://www.w3.org/2000/svg"
   xmlns="http://www.w3.org/2000/svg"
   xmlns:xlink="http://www.w3.org/1999/xlink"
   xmlns:sodipodi="http://sodipodi.sourceforge.net/DTD/sodipodi-0.dtd"
   xmlns:inkscape="http://www.inkscape.org/namespaces/inkscape"
   height="24"
   width="24"
   version="1.1"
   id="svg39"
   sodipodi:docname="lc_bold.svg"
   inkscape:version="0.92.4 (unknown)"
   inkscape:export-filename="/home/rizmut/Dokumen/Rizmut/Github/libreoffice-style-elementary/images_elementary/cmd/sl/lc_bold.png"
   inkscape:export-xdpi="96"
   inkscape:export-ydpi="96">
  <metadata
     id="metadata45">
    <rdf:RDF>
      <cc:Work
         rdf:about="">
        <dc:format>image/svg+xml</dc:format>
        <dc:type
           rdf:resource="http://purl.org/dc/dcmitype/StillImage" />
        <dc:title />
      </cc:Work>
    </rdf:RDF>
  </metadata>
  <defs
     id="defs43">
    <radialGradient
       inkscape:collect="always"
       xlink:href="#c"
       id="radialGradient884"
       cx="11.904744"
       cy="4.3610497"
       fx="11.904744"
       fy="4.3610497"
       r="6.7582979"
       gradientTransform="matrix(0.01593237,2.9166493,-2.3215578,0.01268165,22.839502,-31.91211)"
       gradientUnits="userSpaceOnUse" />
    <radialGradient
       id="d-0"
       cx="40"
       cy="43.5"
       gradientTransform="matrix(1,0,0,0.75,-25.767561,12.375)"
       gradientUnits="userSpaceOnUse"
       r="2"
       xlink:href="#a" />
    <linearGradient
       id="linearGradient1091">
      <stop
         offset="0"
         id="stop2-9" />
      <stop
         offset="1"
         stop-opacity="0"
         id="stop4-3" />
    </linearGradient>
    <radialGradient
       id="e-6"
       cx="9"
       cy="43.5"
       gradientTransform="matrix(1,0,0,0.75,0.47915456,12.375)"
       gradientUnits="userSpaceOnUse"
       r="2"
       xlink:href="#a" />
    <linearGradient
       id="b-0"
       gradientUnits="userSpaceOnUse"
       x1="17"
       x2="17"
       y1="46.5"
       y2="43.5"
       gradientTransform="matrix(0.29101737,0,0,1,8.0240678,0)">
      <stop
         offset="0"
         stop-opacity="0"
         id="stop7-6" />
      <stop
         offset=".5"
         id="stop9-2" />
      <stop
         offset="1"
         stop-opacity="0"
         id="stop11-6" />
    </linearGradient>
    <radialGradient
       inkscape:collect="always"
       xlink:href="#a"
       id="radialGradient1166"
       gradientUnits="userSpaceOnUse"
       gradientTransform="matrix(1,0,0,0.75,-26.446602,12.375)"
       cx="40"
       cy="43.5"
       r="2" />
    <radialGradient
       inkscape:collect="always"
       xlink:href="#a"
       id="radialGradient1168"
       gradientUnits="userSpaceOnUse"
       gradientTransform="matrix(1,0,0,0.75,0.47915456,12.375)"
       cx="9"
       cy="43.5"
       r="2" />
    <linearGradient
       inkscape:collect="always"
       xlink:href="#b-0"
       id="linearGradient1170"
       gradientUnits="userSpaceOnUse"
       gradientTransform="matrix(0.29101737,0,0,1,8.0240678,0)"
       x1="17"
       y1="46.5"
       x2="17"
       y2="43.5" />
  </defs>
  <sodipodi:namedview
     pagecolor="#ffffff"
     bordercolor="#666666"
     borderopacity="1"
     objecttolerance="10"
     gridtolerance="10"
     guidetolerance="10"
     inkscape:pageopacity="0"
     inkscape:pageshadow="2"
     inkscape:window-width="1366"
     inkscape:window-height="714"
     id="namedview41"
     showgrid="true"
     inkscape:snap-global="true"
     inkscape:zoom="16.000001"
     inkscape:cx="7.7144196"
     inkscape:cy="8.4262321"
     inkscape:window-x="0"
     inkscape:window-y="28"
     inkscape:window-maximized="1"
     inkscape:current-layer="svg39">
    <inkscape:grid
       type="xygrid"
       id="grid852" />
  </sodipodi:namedview>
  <linearGradient
     id="a">
    <stop
       offset="0"
       id="stop2" />
    <stop
       offset="1"
       stop-opacity="0"
       id="stop4" />
  </linearGradient>
  <linearGradient
     id="b"
     gradientUnits="userSpaceOnUse"
     x1="17"
     x2="17"
     y1="46.5"
     y2="43.5">
    <stop
       offset="0"
       stop-opacity="0"
       id="stop7" />
    <stop
       offset=".5"
       id="stop9" />
    <stop
       offset="1"
       stop-opacity="0"
       id="stop11" />
  </linearGradient>
  <radialGradient
     id="c"
     cx="13.325464"
     cy="8.331412"
     gradientTransform="matrix(-3.7117719,0.11187051,-0.21033005,-6.7825606,47.356407,56.934853)"
     gradientUnits="userSpaceOnUse"
     r="5.349211">
    <stop
       offset="0"
       stop-color="#737373"
       id="stop14" />
    <stop
       offset=".26238"
       stop-color="#636363"
       id="stop16" />
    <stop
       offset=".704952"
       stop-color="#4b4b4b"
       id="stop18" />
    <stop
       offset="1"
       stop-color="#3f3f3f"
       id="stop20" />
  </radialGradient>
  <radialGradient
     id="d"
     cx="40"
     cy="43.5"
     gradientTransform="matrix(1,0,0,0.75,-32.283838,12.375)"
     gradientUnits="userSpaceOnUse"
     r="2"
     xlink:href="#a" />
  <radialGradient
     id="e"
     cx="9"
     cy="43.5"
     gradientTransform="matrix(1,0,0,0.75,-4,12.375)"
     gradientUnits="userSpaceOnUse"
     r="2"
     xlink:href="#a" />
  <g
     id="g1164"
     transform="matrix(0.73633307,0,0,1,8.0201848,-24.5)">
    <path
       id="path1158"
       d="m 13.553398,43.5 v 3 h 0.5 c 0.831,0 1.5,-0.669 1.5,-1.5 0,-0.831 -0.669,-1.5 -1.5,-1.5 z"
       inkscape:connector-curvature="0"
       style="opacity:0.2;fill:url(#radialGradient1166)" />
    <path
       id="path1160"
       d="m 8.8854046,43.5 c -0.7790625,0 -1.40625,0.627187 -1.40625,1.40625 v 0.1875 c 0,0.779063 0.6271875,1.40625 1.40625,1.40625 h 0.59375 v -3 z"
       inkscape:connector-curvature="0"
       style="opacity:0.2;fill:url(#radialGradient1168)" />
    <path
       id="path1162"
       d="m 9.4791546,43.5 h 4.0742434 v 3 H 9.4791546 Z"
       inkscape:connector-curvature="0"
       style="opacity:0.2;fill:url(#linearGradient1170);stroke-width:0.53946024" />
  </g>
  <g
     transform="matrix(0.73633307,0,0,1,-0.47981501,-24.5)"
     id="g31">
    <path
       style="opacity:0.2;fill:url(#d-0)"
       inkscape:connector-curvature="0"
       d="m 14.232439,43.5 v 3 h 0.5 c 0.831,0 1.5,-0.669 1.5,-1.5 0,-0.831 -0.669,-1.5 -1.5,-1.5 z"
       id="path25" />
    <path
       style="opacity:0.2;fill:url(#e-6)"
       inkscape:connector-curvature="0"
       d="m 8.8854046,43.5 c -0.7790625,0 -1.40625,0.627187 -1.40625,1.40625 v 0.1875 c 0,0.779063 0.6271875,1.40625 1.40625,1.40625 h 0.59375 v -3 z"
       id="path27" />
    <path
       style="opacity:0.2;fill:url(#b-0);stroke-width:0.53946024"
       inkscape:connector-curvature="0"
       d="m 9.4791546,43.5 h 4.7532844 v 3 H 9.4791546 Z"
       id="path29"
       sodipodi:nodetypes="ccccc" />
  </g>
  <g
     aria-label="K"
     style="font-style:normal;font-weight:normal;font-size:22.41456604px;line-height:1.25;font-family:sans-serif;letter-spacing:0px;word-spacing:0px;fill:url(#radialGradient884);fill-opacity:1;stroke:#000000;stroke-width:1;stroke-miterlimit:4;stroke-dasharray:none;stroke-opacity:0.6"
     id="text856">
    <path
       d="M 18.692298,20.5 H 14.839795 L 11.769575,13.845676 10.5,14.786912 V 20.5 H 6.4999999 V 4.4989768 H 10.5 v 7.7050072 l 1.335242,-2.2655349 3.048331,-5.4394723 h 3.764947 l -4.829884,7.2124992 z"
       style="font-style:normal;font-variant:normal;font-weight:bold;font-stretch:normal;font-family:'Droid Sans';-inkscape-font-specification:'Droid Sans Bold';fill:url(#radialGradient884);fill-opacity:1;stroke:#000000;stroke-width:1;stroke-miterlimit:4;stroke-dasharray:none;stroke-opacity:0.6"
       id="path850"
       inkscape:connector-curvature="0"
       sodipodi:nodetypes="cccccccccccccc" />
  </g>
  <path
     style="font-style:normal;font-weight:normal;font-size:22.41456604px;line-height:1.25;font-family:sans-serif;letter-spacing:0px;word-spacing:0px;opacity:0.2;fill:#ffffff;fill-opacity:1;stroke:none;stroke-width:1;stroke-miterlimit:4;stroke-dasharray:none;stroke-opacity:1"
     d="m 6.5,4.4980469 v 1.5 h 3.999748 v -1.5 z m 8.382812,0 -3.047126,5.4394531 -1.335938,2.265625 v 1.5 L 11.835686,11.4375 14.882812,5.9980469 h 2.703126 l 1.0625,-1.5 z M 14.298828,12.53125 13.818359,13.210938 17.8125,20.5 h 0.878906 z"
     id="text1151"
     inkscape:connector-curvature="0"
     sodipodi:nodetypes="ccccccccccccccccccc" />
</svg>
